public/flags/MY.svg

<svg fill="none" height="53" viewBox="0 0 61 53" width="61" xmlns="http://www.w3.org/2000/svg" xmlns:xlink="http://www.w3.org/1999/xlink"><mask id="a" height="43" maskUnits="userSpaceOnUse" width="59" x="1" y="3"><rect fill="#fff" height="42.5" rx="4.24286" width="59" x="1" y="3"/></mask><rect fill="#fff" height="42.5" rx="4.24286" width="59" x="1" y="3"/><g mask="url(#a)"><path clip-rule="evenodd" d="m60 3h-30.9048v2.83333h30.9048zm0 5.66664h-30.9048v2.83336h30.9048zm-30.9048 5.66666h30.9048v2.8334h-30.9048zm30.9048 5.6667h-30.9048v2.8333h30.9048zm-59 5.6667h59v2.8333h-59zm59 5.6666h-59v2.8334h59zm-59 5.6667h59v2.8334h-59zm59 5.6667h-59v2.8333h59z" fill="#e1244a" fill-rule="evenodd"/><path d="m1 3h33.7143v22.6667h-33.7143z" fill="#0c3f8e"/><path clip-rule="evenodd" d="m15.0477 22.8333c1.9915 0 3.8217-.6965 5.264-1.8612-.764.2874-1.5911.4445-2.4545.4445-3.8791 0-7.0238-3.1713-7.0238-7.0833s3.1447-7.08332 7.0238-7.08332c.8634 0 1.6905.15711 2.4545.44453-1.4423-1.16467-3.2725-1.8612-5.264-1.8612-4.655 0-8.42856 3.80558-8.42856 8.49999 0 4.6944 3.77356 8.5 8.42856 8.5zm5.9906-3.3945 2.438-2.7822 2.438 2.7822-.6368-3.6569 3.677-.1876-3.2322-1.778 2.1471-3.0161-3.3935 1.4399-.9996-3.57346-.9996 3.57346-3.3935-1.4399 2.1471 3.0161-3.2322 1.778 3.677.1876z" fill="#ffd34f" fill-rule="evenodd"/></g></svg>

<svg width="61" height="53" viewBox="0 0 61 53" fill="none" xmlns="http://www.w3.org/2000/svg">
<rect x="1" y="3" width="59" height="42.5" rx="4.24286" fill="white"/>
<mask id="mask0" mask-type="alpha" maskUnits="userSpaceOnUse" x="1" y="3" width="59" height="43">
<rect x="1" y="3" width="59" height="42.5" rx="4.24286" fill="white"/>
</mask>
<g mask="url(#mask0)">
<path fill-rule="evenodd" clip-rule="evenodd" d="M60 3H29.0952V5.83333H60V3ZM60 8.66664H29.0952V11.5H60V8.66664ZM29.0952 14.3333H60V17.1667H29.0952V14.3333ZM60 20H29.0952V22.8333H60V20ZM1 25.6667H60V28.5H1V25.6667ZM60 31.3333H1V34.1667H60V31.3333ZM1 37H60V39.8334H1V37ZM60 42.6667H1V45.5H60V42.6667Z" fill="#E1244A"/>
<rect x="1" y="3" width="33.7143" height="22.6667" fill="#0C3F8E"/>
<path fill-rule="evenodd" clip-rule="evenodd" d="M15.0477 22.8333C17.0392 22.8333 18.8694 22.1368 20.3117 20.9721C19.5477 21.2595 18.7206 21.4166 17.8572 21.4166C13.9781 21.4166 10.8334 18.2453 10.8334 14.3333C10.8334 10.4213 13.9781 7.24998 17.8572 7.24998C18.7206 7.24998 19.5477 7.40709 20.3117 7.69451C18.8694 6.52984 17.0392 5.83331 15.0477 5.83331C10.3927 5.83331 6.61914 9.63889 6.61914 14.3333C6.61914 19.0277 10.3927 22.8333 15.0477 22.8333ZM21.0383 19.4388L23.4763 16.6566L25.9143 19.4388L25.2775 15.7819L28.9545 15.5943L25.7223 13.8163L27.8694 10.8002L24.4759 12.2401L23.4763 8.66664L22.4767 12.2401L19.0832 10.8002L21.2303 13.8163L17.9981 15.5943L21.6751 15.7819L21.0383 19.4388Z" fill="#FFD34F"/>
</g>
</svg>
